!!!!SEGMENT: pl-stab--10a--001-006_rodowski-aleksander--litanie-lauretane-de-b-v-m-virgo-prudentissima.krn
!!!cenid: 18xx:3436
!!!COM: Rodowski, Aleksander
!!!COM-rismID:
!!!CDT: <1790->1810
!!!CNT: Polish
!!!OPR: Litanie Lauretane de B.V.M
!!!OTL: Virgo prudentissima
!!!OMV: 006
!!!PDT:
!!!AGN:
!!!SMS-siglum: PL-STAb
!!!SMS-shelfmark: 10a
!!!SMS-shelfwork: 001-006 M
!!!SMS-variant:
!!!SMS-altvar:
!!!NIFC-rismSourceID: 301050674
!!!NIFC-islandoraID: pl-stab:2273
!!!URL-pdf-islandora: https://repozytorium.nifc.pl/islandora/object/pl-stab%3A2273/datastream/PDF/view
!!!URL-scan: https://polish.musicsources.pl/pl/lokalizacje/galeria/rekopisy/4397 @EN{Scan on Polish Music Herritage in Open Access Website} @PL{Skany w portalu Dziedzictwo Muzyki Polskiej w otwartym dostępie}
!!!ONB-nifc: UWAGA: części Litanii: 1. Kyrie, 2. Pater de caelis, 3. Sancta Maria, 4. Mater Christi, 5. Mater amabilis, 6. Virgo prudentissima, 7. Rosa mistica, 8. Salus infirmorum, 9. Regina angelorum, 10. Agnus Dei
!!!AIN: 1 alto 1 bass 2 cor 1 organ 1 tenor 2 violn
!!!key: G
**kern	**fba	**dynam	**kern	**dynam	**kern	**dynam	**kern	**text	**kern	**text	**kern	**text	**kern	**kern
*part8	*	*part8	*part7	*part7	*part6	*part6	*part5	*part5	*part4	*part4	*part3	*part3	*part2	*part1
*group4	*	*	*group3	*	*group3	*	*group2	*group2	*group2	*group2	*group2	*	*group1	*group1
*staff8	*	*	*staff7	*	*staff6	*	*staff5	*staff5	*staff4	*staff4	*staff3	*staff3	*staff2	*staff1
*I"Organo	*	*	*I"Violino Secundo	*	*I"Violino Primo	*	*I"Baſso	*	*I"Tenore	*	*I"Canto	*	*I"Cornu Secundo in G.	*I"Cornu Primo in G.
*I'org	*	*	*I'vl 2	*	*I'vl 1	*	*I'B	*	*I'T	*	*I'S	*	*I'cor 2 in G	*I'cor 1 in G
*Iorgan	*	*	*Ivioln	*	*Ivioln	*	*Ibass	*	*Itenor	*	*Ialto	*	*Icor	*Icor
*ICklav	*	*	*ICstr	*	*ICstr	*	*ICvox	*	*ICvox	*	*ICvox	*	*ICbras	*ICbras
*IGcont	*	*	*	*	*	*	*	*	*	*	*	*	*	*
*clefF4	*	*	*clefG2	*	*clefG2	*	*clefF4	*	*clefC4	*	*clefC1	*	*clefG2	*clefG2
*	*	*	*	*	*	*	*	*	*	*	*	*	*ITrd4c7	*ITrd4c7
*k[]	*	*	*k[]	*	*k[]	*	*k[]	*	*k[]	*	*k[]	*	*k[]	*k[]
*G:	*	*	*G:	*	*G:	*	*G:	*	*G:	*	*G:	*	*G:	*G:
*M2/4	*	*	*M2/4	*	*M2/4	*	*M2/4	*	*M2/4	*	*M2/4	*	*M2/4	*M2/4
=1	=1	=1	=1	=1	=1	=1	=1	=1	=1	=1	=1	=1	=1	=1
*2\right	*	*2\right	*2\right	*2\right	*2\right	*2\right	*2\right	*2\right	*2\right	*2\right	*2\right	*2\right	*2\right	*2\right
*	*	*	*	*below	*	*	*	*	*	*	*	*	*	*
!!LO:TX:t=P:problem:p=p.
!!LO:TX:t=P:problem:f=f.
!LO:TX:a:B:t=Adagio	!	!	!LO:TX:a:B:t=Adagio	!	!LO:TX:a:B:t=Adagio	!	!LO:TX:a:B:t=Adagio	!	!LO:TX:a:B:t=Adagio	!	!LO:TX:a:B:t=Adagio	!	!LO:TX:a:t=Tacet	!LO:TX:a:t=Tacet
!	!	!	!	!LO:DY:rj	!	!	!LO:N:vis=00	!	!LO:N:vis=00	!	!LO:N:vis=00	!	!	!
16C'\LL	.	.	16c/LL	f	16c/LL	.	0r	.	0r	.	0r	.	2ryy	2ryy
16D'\	.	.	16d/	.	16d/	.	.	.	.	.	.	.	.	.
16E'\	.	.	16e/	.	16e/	.	.	.	.	.	.	.	.	.
16F'\JJ	.	.	16f/JJ	.	16f/JJ	.	.	.	.	.	.	.	.	.
16G'\LL	.	.	16g/LL	.	16g/LL	.	.	.	.	.	.	.	.	.
16A'\	.	.	16a/	.	16a/	.	.	.	.	.	.	.	.	.
16B'\	.	.	16b/	.	16b/	.	.	.	.	.	.	.	.	.
16c'\JJ	.	.	16cc/JJ	.	16cc/JJ	.	.	.	.	.	.	.	.	.
=2	=2	=2	=2	=2	=2	=2	=2	=2	=2	=2	=2	=2	=2	=2
16.d\LL	.	.	8bL 8d/	.	16.dd\LL	.	.	.	.	.	.	.	2ryy	2ryy
32B\JJk	.	.	.	.	32ee\JK	.	.	.	.	.	.	.	.	.
8G\L	.	.	8bJ 8d/	.	8ff\J	.	.	.	.	.	.	.	.	.
8G\J	.	.	4r	.	32ff\LLL	.	.	.	.	.	.	.	.	.
.	.	.	.	.	32gg\	.	.	.	.	.	.	.	.	.
.	.	.	.	.	32aa\	.	.	.	.	.	.	.	.	.
.	.	.	.	.	32gg\JJJ	.	.	.	.	.	.	.	.	.
8r	.	.	.	.	32ff\LLL	.	.	.	.	.	.	.	.	.
.	.	.	.	.	32ee\	.	.	.	.	.	.	.	.	.
.	.	.	.	.	32dd\	.	.	.	.	.	.	.	.	.
.	.	.	.	.	32cc\JJJ	.	.	.	.	.	.	.	.	.
=3	=3	=3	=3	=3	=3	=3	=3	=3	=3	=3	=3	=3	=3	=3
16GG'/LL	.	.	16G/LL	.	16b/LL	.	.	.	.	.	.	.	2ryy	2ryy
16AA'/	.	.	16g/	.	16g/	.	.	.	.	.	.	.	.	.
16BB'/	.	.	16f#X/	.	16f#X/	.	.	.	.	.	.	.	.	.
16C'/JJ	.	.	16g/JJ	.	16g/JJ	.	.	.	.	.	.	.	.	.
16D'\LL	.	.	16a/LL	.	16a/LL	.	.	.	.	.	.	.	.	.
16E'\	.	.	16g/	.	16g/	.	.	.	.	.	.	.	.	.
16F'\	.	.	16a/	.	16a/	.	.	.	.	.	.	.	.	.
16G'\JJ	.	.	16b/JJ	.	16b/JJ	.	.	.	.	.	.	.	.	.
=4	=4	=4	=4	=4	=4	=4	=4	=4	=4	=4	=4	=4	=4	=4
!LO:TX:a:t=P:problem:mixed beam	!	!	!	!	!	!	!	!	!	!	!	!	!	!
8c\L	.	.	8ccL 8e/	.	16.cc\LL	.	.	.	.	.	.	.	2ryy	2ryy
.	.	.	.	.	32dd\JK	.	.	.	.	.	.	.	.	.
8C/	.	.	8ccJ 8e/	.	8ee\J	.	.	.	.	.	.	.	.	.
8C/J	.	.	16dd\LL	.	16ff\LL	.	.	.	.	.	.	.	.	.
.	.	.	16ee\	.	16gg\	.	.	.	.	.	.	.	.	.
8r	.	.	16ff\	.	16aa\	.	.	.	.	.	.	.	.	.
.	.	.	16dd\JJ	.	16bb\JJ	.	.	.	.	.	.	.	.	.
=5	=5	=5	=5	=5	=5	=5	=5	=5	=5	=5	=5	=5	=5	=5
!	!	!	!	!	!	!	!LO:N:vis=0	!	!LO:N:vis=0	!	!LO:N:vis=0	!	!	!
8.c\L	.	.	8.ee\L	.	8.ccc\L	.	1r	.	1r	.	1r	.	2ryy	2ryy
16c\Jk	.	.	16cc\Jk	.	16cc\Jk	.	.	.	.	.	.	.	.	.
16A\LL	.	.	16a/LL	.	16a\LL	.	.	.	.	.	.	.	.	.
16B\	.	.	16b/	.	16b\	.	.	.	.	.	.	.	.	.
16c\	.	.	16cc/	.	16cc\	.	.	.	.	.	.	.	.	.
16d\JJ	.	.	16dd/JJ	.	16dd\JJ	.	.	.	.	.	.	.	.	.
!	!	!	!	!	!LO:LB:g=original	!	!	!	!	!	!	!	!	!
=6	=6	=6	=6	=6	=6	=6	=6	=6	=6	=6	=6	=6	=6	=6
!LO:TX:a:t=P:problem:mixed beam	!	!	!	!	!	!	!	!	!	!	!	!	!	!
8G\L	.	.	8g/L	.	8g/L	.	.	.	.	.	.	.	2ryy	2ryy
8GG/	.	.	32g/LL	.	32g/LL	.	.	.	.	.	.	.	.	.
.	.	.	32f#X/	.	32f#X/	.	.	.	.	.	.	.	.	.
.	.	.	32g/	.	32g/	.	.	.	.	.	.	.	.	.
.	.	.	32a/JJJ	.	32f#/JJJ	.	.	.	.	.	.	.	.	.
8GG/J	.	.	8g/	.	8g/	.	.	.	.	.	.	.	.	.
8r	.	.	8r	.	8r	.	.	.	.	.	.	.	.	.
!	!	!	!LO:LB:g=original	!	!	!	!	!	!	!	!	!	!	!
=7	=7	=7	=7	=7	=7	=7	=7	=7	=7	=7	=7	=7	=7	=7
!LO:TX:t=P:problem:t. 7-12 zapisane repetycją	!	!	!	!	!	!	!	!	!	!	!	!	!	!
16C'\LLyy	.	.	16c/LL	.	16c/LL	.	16C/LL	Vir-	8c\	Vir-	8ee\	Vir-	2ryy	2ryy
16D'\yy	.	.	16d/	.	16d/	.	16D/JJ	.	.	.	.	.	.	.
16E'\yy	.	.	16e/	.	16e/	.	16E\LL	-go	8c\	-go	8ee\	-go	.	.
16F'\JJyy	.	.	16f/JJ	.	16f/JJ	.	16F\JJ	.	.	.	.	.	.	.
16G'\LLyy	.	.	16g/LL	.	16g/LL	.	16G\LL	pru-	8c\	pru-	8ee\	pru-	.	.
16A'\yy	.	.	16a/	.	16a/	.	16A\JJ	.	.	.	.	.	.	.
16B'\yy	.	.	16b/	.	16b/	.	16B\LL	-den-	8c\	-den-	8ee\	-den-	.	.
16c'\JJyy	.	.	16cc/JJ	.	16cc/JJ	.	16c\JJ	.	.	.	.	.	.	.
=8	=8	=8	=8	=8	=8	=8	=8	=8	=8	=8	=8	=8	=8	=8
!	!	!	!	!	!	!	!	!	!LO:N:vis=8.	!	!LO:N:vis=8.	!	!	!
16.d\LLyy	.	.	8bL 8d/	.	16.dd\LL	.	16.d\	-tiſ-	16.B\	-tiſ-	16.ff\	-tiſ-	2ryy	2ryy
!	!	!	!	!	!	!	!	!	!LO:N:vis=16	!	!LO:N:vis=16	!	!	!
32B\JJkyy	.	.	.	.	32ee\JK	.	32d\	-si-	32B\	-si-	32ff\	-si-	.	.
8G\Lyy	.	.	8bJ 8d/	.	8ff\J	.	8d\	-ma	8B\	-ma	8ff\	-ma	.	.
.	.	.	.	.	.	.	.	.	.	.	.	.	.	.
8G\Jyy	.	.	4r	.	32ff\LLL	.	4r	.	4r	.	4r	.	.	.
.	.	.	.	.	32gg\	.	.	.	.	.	.	.	.	.
.	.	.	.	.	32aa\	.	.	.	.	.	.	.	.	.
.	.	.	.	.	32gg\JJJ	.	.	.	.	.	.	.	.	.
8ryy	.	.	.	.	32ff\LLL	.	.	.	.	.	.	.	.	.
.	.	.	.	.	32ee\	.	.	.	.	.	.	.	.	.
.	.	.	.	.	32dd\	.	.	.	.	.	.	.	.	.
.	.	.	.	.	32cc\JJJ	.	.	.	.	.	.	.	.	.
=9	=9	=9	=9	=9	=9	=9	=9	=9	=9	=9	=9	=9	=9	=9
16GG'/LLyy	.	.	16G/LL	.	16b/LL	.	16GG/LL	Vir-	8B\	Vir-	8dd\	Vir-	2ryy	2ryy
16AA'/yy	.	.	16g/	.	16g/	.	16AA/JJ	.	.	.	.	.	.	.
16BB'/yy	.	.	16f#X/	.	16f#X/	.	16BB/LL	-go	8B\	-go	8dd\	-go	.	.
16C'/JJyy	.	.	16g/JJ	.	16g/JJ	.	16C/JJ	.	.	.	.	.	.	.
16D'\LLyy	.	.	16a/LL	.	16a/LL	.	16D\LL	ve-	8B\	ve-	8dd\	ve-	.	.
16E'\yy	.	.	16g/	.	16g/	.	16E\JJ	.	.	.	.	.	.	.
16F'\yy	.	.	16a/	.	16a/	.	16F\LL	-ne-	8B\	-ne-	8dd\	-ne-	.	.
16G'\JJyy	.	.	16b/JJ	.	16b/JJ	.	16G\JJ	.	.	.	.	.	.	.
!	!	!	!	!	!	!	!	!	!	!	!LO:LB:g=original	!	!	!
=10	=10	=10	=10	=10	=10	=10	=10	=10	=10	=10	=10	=10	=10	=10
!LO:TX:a:t=P:problem:mixed beam	!	!	!	!	!	!	!	!	!	!	!	!	!	!
8c\Lyy	.	.	8ccL 8e/	.	16.cc\LL	.	8c\	-ran-	8c\	-ran-	8ee\	-ran-	2ryy	2ryy
.	.	.	.	.	32dd\JK	.	.	.	.	.	.	.	.	.
8C/yy	.	.	8ccJ 8e/	.	8ee\J	.	8C/	-da	8c\	-da	8ee\	-da	.	.
8C/Jyy	.	.	16dd\LL	.	16ff\LL	.	4r	.	4r	.	4r	.	.	.
.	.	.	16ee\	.	16gg\	.	.	.	.	.	.	.	.	.
8ryy	.	.	16ff\	.	16aa\	.	.	.	.	.	.	.	.	.
.	.	.	16dd\JJ	.	16bb\JJ	.	.	.	.	.	.	.	.	.
!	!	!	!	!	!	!	!LO:LB:g=original	!	!	!	!	!	!	!
=11	=11	=11	=11	=11	=11	=11	=11	=11	=11	=11	=11	=11	=11	=11
8.c\Lyy	.	.	8.ee\L	.	8.ccc\L	.	8.c\	vir-	8.c\	Vir-	8.cc\	Vir-	2ryy	2ryy
16c\Jkyy	.	.	16cc\Jk	.	16cc\Jk	.	16c\	-go	16c\	-go	16cc\	-go	.	.
16A\LLyy	.	.	16a/LL	.	16a\LL	.	16A\LL	prae-	16A\LL	prae-	16a\LL	prae-	.	.
16B\yy	.	.	16b/	.	16b\	.	16B\	.	16B\	.	16b\JJ	.	.	.
16c\yy	.	.	16cc/	.	16cc\	.	16c\	-di-	16c\JJ	.	16cc\LL	-di-	.	.
16d\JJyy	.	.	16dd/JJ	.	16dd\JJ	.	16d\JJ	.	16d\	-di-	16dd\JJ	.	.	.
!	!	!	!	!	!	!	!	!	!LO:LB:g=original	!	!	!	!	!
=12	=12	=12	=12	=12	=12	=12	=12	=12	=12	=12	=12	=12	=12	=12
!LO:TX:a:t=P:problem:mixed beam	!	!	!	!	!	!	!	!	!	!	!	!	!	!
8G\Lyy	.	.	8g/L	.	8g/L	.	8G\	-can-	8G/	-can-	8g\	-can-	2ryy	2ryy
8GG/yy	.	.	32g/LL	.	32g/LL	.	8G\	-da	8G/	-da	8g\	-da	.	.
.	.	.	32f#X/	.	32f#X/	.	.	.	.	.	.	.	.	.
.	.	.	32g/	.	32g/	.	.	.	.	.	.	.	.	.
.	.	.	32f#/JJJ	.	32f#/JJJ	.	.	.	.	.	.	.	.	.
!	!	!	!	!	!LO:LB:g=original	!	!	!	!	!	!	!	!	!
8GG/Jyy	.	.	8g/	.	8g/	.	4r	.	4r	.	4r	.	.	.
8ryy	.	.	8r	.	8r	.	.	.	.	.	.	.	.	.
!LO:LB:g=original	!	!	!	!	!	!	!	!	!	!	!	!	!	!
=13	=13	=13	=13	=13	=13	=13	=13	=13	=13	=13	=13	=13	=13	=13
*	*	*	*	*	*	*below	*	*	*	*	*	*	*	*
!	!	!	!	!LO:DY:t=p	!	!	!	!	!	!	!	!	!	!
8G\L	7_ 3	.	4b\	p	4ff\	p	8G\L	O-	8B\L	O-	2ff\	O-	2ryy	2ryy
8A\	_ 3	.	.	.	.	.	8A\	.	8c\	.	.	.	.	.
8B\	_ 3	.	8r	.	8r	.	8B\	.	8d\	.	.	.	.	.
8G#X\J	_ 3	.	8b\	.	8ff\	.	8G#X\J	.	8B\J	.	.	.	.	.
=14	=14	=14	=14	=14	=14	=14	=14	=14	=14	=14	=14	=14	=14	=14
8A\L	5 3	.	4cc\	.	4ee\	.	8A\L	.	8c\L	.	4.ee\	-ra	2ryy	2ryy
8G#X\	_ 3	.	.	.	.	.	8G#X\	.	8B\	.	.	.	.	.
8A\	_ 3	.	8r	.	8r	.	8A\	.	8c\	.	.	.	.	.
8E\J	x 6|	.	8g/	.	8cc#X\	.	8E\J	.	8G\J	.	8cc#X\	o-	.	.
=15	=15	=15	=15	=15	=15	=15	=15	=15	=15	=15	=15	=15	=15	=15
8F\L	6 3	.	8a/L	.	8dd\L	.	8F\	.	8A\	.	8dd\	-ra	2ryy	2ryy
16E\L	x 6|	.	16g/L	.	16cc#X\L	.	16E\	-ra	16G\	-ra	16cc#X\	pro	.	.
16F\JJ	x 6	.	16a/JJ	.	16dd\JJ	.	16F\	pro	16A\	pro	16dd\	.	.	.
!LO:TX:a:t=P:problem:mixed beam	!	!	!LO:LB:g=original	!	!	!	!LO:TX:a:t=P:problem:mixed beam	!	!	!	!	!	!	!
8G\L	x n4	.	8e/L	.	8ccn\L	.	8Gn\L	no-	8E/L	no-	8ccn\L	no-	.	.
8GG/J	x 3	.	8d/J	.	8b\J	.	8GG/J	.	8D/J	.	8b\J	.	.	.
=16	=16	=16	=16	=16	=16	=16	=16	=16	=16	=16	=16	=16	=16	=16
!	!	!	!LO:TX:a:t=P:problem:mixed beam	!	!	!	!	!	!	!	!	!	!	!
8C/	.	.	8e/L	.	16cc\LL	.	8C/	-bis	8E/	-bis	8cc\	-bis	2ryy	2ryy
.	.	.	.	.	16ccc\	.	.	.	.	.	.	.	.	.
8r	.	.	16aa\L	.	16aa\	.	8r	.	8r	.	8r	.	.	.
.	.	.	16ff#X\JJ	.	16ff#X\JJ	.	.	.	.	.	.	.	.	.
4r	.	.	16aa\LL	.	16aa\LL	.	4r	.	4r	.	4r	.	.	.
.	.	.	16gg\	.	16gg\	.	.	.	.	.	.	.	.	.
.	.	.	16ee\	.	16ee\	.	.	.	.	.	.	.	.	.
.	.	.	16cc\JJ	.	16cc\JJ	.	.	.	.	.	.	.	.	.
!	!	!	!	!	!	!	!LO:LB:g=original	!	!	!	!LO:LB:g=original	!	!	!
=17	=17	=17	=17	=17	=17	=17	=17	=17	=17	=17	=17	=17	=17	=17
!	!	!	!	!	!	!	!	!	!LO:TX:t=P:problem:t. 17-20 zapisane repetycją	!	!	!	!	!
8G\L	7 3	.	4b\	.	4ff\	.	8G\L	O-	8B\Lyy	O-	2ff\	O-	2ryy	2ryy
8A\	_ 3	.	.	.	.	.	8A\	.	8c\yy	.	.	.	.	.
8B\	_ 3	.	8r	.	8r	.	8B\	.	8d\yy	.	.	.	.	.
8G#X\J	_ 3	.	8b\	.	8ff\	.	8G#X\J	.	8B\Jyy	.	.	.	.	.
=18	=18	=18	=18	=18	=18	=18	=18	=18	=18	=18	=18	=18	=18	=18
8A\L	5 3	.	4cc\	.	4ee\	.	8A\L	.	8c\Lyy	.	4.ee\	-ra	2ryy	2ryy
!	!	!	!	!	!	!	!LO:SIC:v:s=8G#\	!	!	!	!	!	!	!
8G#X\	_ 3	.	.	.	.	.	8G\	.	8B\yy	.	.	.	.	.
8A\	_ 3	.	8r	.	8r	.	8A\	.	8c\yy	.	.	.	.	.
8E\J	x 6|	.	8g/	.	8cc#X\	.	8E\J	.	8G\Jyy	.	8cc#X\	o-	.	.
=19	=19	=19	=19	=19	=19	=19	=19	=19	=19	=19	=19	=19	=19	=19
8F\L	x 6	.	8a/L	.	8dd\L	.	8F\	.	8A\yy	.	8dd\	.	2ryy	2ryy
16E\L	x 6|	.	16g/L	.	16cc#X\L	.	16E\	-ra	16G\yy	-ra	16cc#X\	-ra	.	.
16F\JJ	x 6	.	16a/JJ	.	16dd\JJ	.	16F\	pro	16A\yy	pro	16dd\	pro	.	.
!LO:TX:a:t=P:problem:mixed beam	!	!	!	!	!	!	!LO:TX:a:t=P:problem:mixed beam	!	!	!	!	!	!	!
8G\L	x n4	.	8e/L	.	8ccn\L	.	8G\L	no-	8E/Lyy	no-	8ccn\L	no-	.	.
8GG/J	x 3	.	8d/J	.	8b\J	.	8GG/J	.	8D/Jyy	.	8b\J	.	.	.
=20	=20	=20	=20	=20	=20	=20	=20	=20	=20	=20	=20	=20	=20	=20
!	!	!	!	!	!LO:TX:b:t=Dulce	!	!	!	!	!	!	!	!	!
8C/	.	.	8e 8G/	.	(16cc\LL	.	8C/	-bis	8E/yy	-bis	8cc\	-bis	2ryy	2ryy
.	.	.	.	.	16gg\)	.	.	.	.	.	.	.	.	.
8r	.	.	8r	.	(16ff#X\	.	8r	.	8ryy	.	8r	.	.	.
.	.	.	.	.	16gg\JJ)	.	.	.	.	.	.	.	.	.
4r	.	.	4r	.	(16aa\LL	.	4r	.	4ryy	.	4r	.	.	.
.	.	.	.	.	16gg\)	.	.	.	.	.	.	.	.	.
.	.	.	.	.	(16ff#\	.	.	.	.	.	.	.	.	.
.	.	.	.	.	16gg\JJ)	.	.	.	.	.	.	.	.	.
!	!	!	!	!	!LO:LB:g=original	!	!	!	!	!	!	!	!	!
=21	=21	=21	=21	=21	=21	=21	=21	=21	=21	=21	=21	=21	=21	=21
!	!	!	!	!	!	!	!	!	!	!	!LO:TX:a:t=14	!	!	!
!	!	!	!	!	!	!	!LO:N:vis=00	!	!LO:N:vis=00	!	!LO:N:vis=00	!	!	!
8r	.	.	8r	.	16ccc\LL	.	0r	.	0r	.	0r	.	2ryy	2ryy
.	.	.	.	.	16gg\J	.	.	.	.	.	.	.	.	.
8C/L	.	.	16r	.	8gg\J	.	.	.	.	.	.	.	.	.
.	.	.	16e 16G/	.	.	.	.	.	.	.	.	.	.	.
8C/	.	.	16eLL 16G/	.	4r	.	.	.	.	.	.	.	.	.
.	.	.	16e 16G/	.	.	.	.	.	.	.	.	.	.	.
8C/J	.	.	16e 16G/	.	.	.	.	.	.	.	.	.	.	.
.	.	.	16eJJ 16G/	.	.	.	.	.	.	.	.	.	.	.
=22	=22	=22	=22	=22	=22	=22	=22	=22	=22	=22	=22	=22	=22	=22
8D/	.	.	8f 8G/	.	16r	.	.	.	.	.	.	.	2ryy	2ryy
.	.	.	.	.	16gg\LL	.	.	.	.	.	.	.	.	.
8r	.	.	8r	.	(16ff#X\	.	.	.	.	.	.	.	.	.
.	.	.	.	.	16gg\JJ)	.	.	.	.	.	.	.	.	.
4r	.	.	4r	.	(16aa\LL	.	.	.	.	.	.	.	.	.
.	.	.	.	.	16gg\)	.	.	.	.	.	.	.	.	.
.	.	.	.	.	(16ff#\	.	.	.	.	.	.	.	.	.
.	.	.	.	.	16gg\JJ)	.	.	.	.	.	.	.	.	.
=23	=23	=23	=23	=23	=23	=23	=23	=23	=23	=23	=23	=23	=23	=23
8r	.	.	8r	.	16ddd\LL	.	.	.	.	.	.	.	2ryy	2ryy
.	.	.	.	.	16gg\J	.	.	.	.	.	.	.	.	.
8BB/L	.	.	16r	.	8gg\J	.	.	.	.	.	.	.	.	.
.	.	.	16f 16G/	.	.	.	.	.	.	.	.	.	.	.
*	*	*	*tremolo	*	*	*	*	*	*	*	*	*	*	*
8BB/	.	.	16fLL 16G/	.	4r	.	.	.	.	.	.	.	.	.
.	.	.	16f 16G/	.	.	.	.	.	.	.	.	.	.	.
8BB/J	.	.	16f 16G/	.	.	.	.	.	.	.	.	.	.	.
.	.	.	16fJJ 16G/	.	.	.	.	.	.	.	.	.	.	.
*	*	*	*Xtremolo	*	*	*	*	*	*	*	*	*	*	*
!LO:LB:g=original	!	!	!	!	!	!	!	!	!	!	!	!	!	!
=24	=24	=24	=24	=24	=24	=24	=24	=24	=24	=24	=24	=24	=24	=24
4C/	x 3	.	8.eL 8.G/	.	16r	.	.	.	.	.	.	.	2ryy	2ryy
.	.	.	.	.	16gg\LL	.	.	.	.	.	.	.	.	.
.	.	.	.	.	16ff#X\	.	.	.	.	.	.	.	.	.
.	.	.	16c/Jk	.	16gg\JJ	.	.	.	.	.	.	.	.	.
.	.	.	.	.	8qqaa/	.	.	.	.	.	.	.	.	.
4D/	6 3	.	16B/LL	.	16gg\LL	.	.	.	.	.	.	.	.	.
.	.	.	16d/	.	16ffn\	.	.	.	.	.	.	.	.	.
.	.	.	16f/	.	16dd\	.	.	.	.	.	.	.	.	.
.	.	.	16g/JJ	.	16b\JJ	.	.	.	.	.	.	.	.	.
!	!	!	!LO:LB:g=original	!	!	!	!	!	!	!	!	!	!	!
=25	=25	=25	=25	=25	=25	=25	=25	=25	=25	=25	=25	=25	=25	=25
!	!	!	!	!	!	!	!LO:N:vis=00	!	!LO:N:vis=00	!	!LO:N:vis=00	!	!	!
4E/	6 3	.	16e/LL	.	8.cc\L	.	0r	.	0r	.	0r	.	2ryy	2ryy
.	.	.	16g/	.	.	.	.	.	.	.	.	.	.	.
.	.	.	16f#X/	.	.	.	.	.	.	.	.	.	.	.
.	.	.	16g/JJ	.	16ee\Jk	.	.	.	.	.	.	.	.	.
4BB/	x 3	.	16g/LL	.	16b\LL	.	.	.	.	.	.	.	.	.
.	.	.	16fn/	.	16dd\	.	.	.	.	.	.	.	.	.
.	.	.	16d/	.	16ff\	.	.	.	.	.	.	.	.	.
.	.	.	16B/JJ	.	16aa\JJ	.	.	.	.	.	.	.	.	.
=26	=26	=26	=26	=26	=26	=26	=26	=26	=26	=26	=26	=26	=26	=26
4C/	x 3	.	8.c/L	.	16ee\LL	.	.	.	.	.	.	.	2ryy	2ryy
.	.	.	.	.	16gg\	.	.	.	.	.	.	.	.	.
.	.	.	.	.	16ff#X\	.	.	.	.	.	.	.	.	.
.	.	.	16e/Jk	.	16gg\JJ	.	.	.	.	.	.	.	.	.
.	.	.	.	.	8qqaa/	.	.	.	.	.	.	.	.	.
4D/	6 3	.	16B/LL	.	16gg\LL	.	.	.	.	.	.	.	.	.
.	.	.	16d/	.	16ffn\	.	.	.	.	.	.	.	.	.
.	.	.	16f/	.	16dd\	.	.	.	.	.	.	.	.	.
.	.	.	16g/JJ	.	16b\JJ	.	.	.	.	.	.	.	.	.
=27	=27	=27	=27	=27	=27	=27	=27	=27	=27	=27	=27	=27	=27	=27
4E/	6 3	.	16e/LL	.	8.cc\L	.	.	.	.	.	.	.	2ryy	2ryy
.	.	.	16g/	.	.	.	.	.	.	.	.	.	.	.
.	.	.	16f#X/	.	.	.	.	.	.	.	.	.	.	.
.	.	.	16g/JJ	.	16ee\Jk	.	.	.	.	.	.	.	.	.
4BB/	x 63	.	16g/LL	.	16dd\LL	.	.	.	.	.	.	.	.	.
.	.	.	16fn/	.	16dd\	.	.	.	.	.	.	.	.	.
.	.	.	16d/	.	16ff\	.	.	.	.	.	.	.	.	.
.	.	.	16B/JJ	.	16aa\JJ	.	.	.	.	.	.	.	.	.
!	!	!	!	!	!LO:LB:g=original	!	!	!	!	!	!	!	!	!
=28	=28	=28	=28	=28	=28	=28	=28	=28	=28	=28	=28	=28	=28	=28
!	!	!	!	!	!LO:TX:b:t=dolce	!	!	!	!	!	!	!	!	!
8C/	x 3	.	16r	.	16gg\LL	.	.	.	.	.	.	.	2ryy	2ryy
.	.	.	16cc\LL	.	16ccc\	.	.	.	.	.	.	.	.	.
8r	.	.	16cc\	.	16ccc\	.	.	.	.	.	.	.	.	.
.	.	.	16cc\JJ	.	16ccc\JJ	.	.	.	.	.	.	.	.	.
8r	.	.	16cc\LL	.	16ccc\LL	.	.	.	.	.	.	.	.	.
.	.	.	16b-X\	.	16bb-X\	.	.	.	.	.	.	.	.	.
8E\	-5 3	.	16a\	.	16aa\	.	.	.	.	.	.	.	.	.
.	.	.	16b-\JJ	.	16bb-\JJ	.	.	.	.	.	.	.	.	.
=29	=29	=29	=29	=29	=29	=29	=29	=29	=29	=29	=29	=29	=29	=29
!	!	!	!	!	!	!	!LO:N:vis=00	!	!LO:N:vis=00	!	!LO:N:vis=00	!	!	!
8F\	x 3	.	16g#X\LL	.	16gg#X\LL	.	0r	.	0r	.	0r	.	2ryy	2ryy
.	.	.	16a\	.	16aa\	.	.	.	.	.	.	.	.	.
8r	.	.	16a\	.	16aa\	.	.	.	.	.	.	.	.	.
.	.	.	16a\JJ	.	16aa\JJ	.	.	.	.	.	.	.	.	.
8r	.	.	16a\LL	.	16aa\LL	.	.	.	.	.	.	.	.	.
!	!	!	!LO:SIC:v:s=16gn\	!	!	!	!	!	!	!	!	!	!	!
.	.	.	16g#\	.	16ggn\	.	.	.	.	.	.	.	.	.
!LO:SIC:v:s=8C#X/	!	!	!	!	!	!	!	!	!	!	!	!	!	!
8BB#X/	5 3	.	16f#X\	.	16ff#X\	.	.	.	.	.	.	.	.	.
!	!	!	!LO:SIC:v:s=16gn\JJ	!	!	!	!	!	!	!	!	!	!	!
.	.	.	16g#\JJ	.	16gg\JJ	.	.	.	.	.	.	.	.	.
=30	=30	=30	=30	=30	=30	=30	=30	=30	=30	=30	=30	=30	=30	=30
8D\L	x 3	.	16g/LL	.	16gg\LL	.	.	.	.	.	.	.	2ryy	2ryy
.	.	.	16fn/	.	16ffn\	.	.	.	.	.	.	.	.	.
16F\L	.	.	16a/	.	16ff\	.	.	.	.	.	.	.	.	.
16D\JJ	.	.	16f/JJ	.	16dd\JJ	.	.	.	.	.	.	.	.	.
!LO:TX:a:t=P:problem:mixed beam	!	!	!	!	!	!	!	!	!	!	!	!	!	!
8G\L	.	.	8e/L	.	8cc\L	.	.	.	.	.	.	.	.	.
8GG/J	.	.	8d/J	.	8b\J	.	.	.	.	.	.	.	.	.
=31	=31	=31	=31	=31	=31	=31	=31	=31	=31	=31	=31	=31	=31	=31
8C/	.	.	16c/LL	.	16cc\LL	.	.	.	.	.	.	.	2ryy	2ryy
.	.	.	16cc/	.	16ccc\	.	.	.	.	.	.	.	.	.
8r	.	.	16cc/	.	16ccc\	.	.	.	.	.	.	.	.	.
.	.	.	16cc/JJ	.	16ccc\JJ	.	.	.	.	.	.	.	.	.
8r	.	.	16cc/LL	.	16ccc\LL	.	.	.	.	.	.	.	.	.
.	.	.	16b-X/	.	16bb-X\	.	.	.	.	.	.	.	.	.
8E/	-5 3	.	16a/	.	16aa\	.	.	.	.	.	.	.	.	.
.	.	.	16b-/JJ	.	16bb-\JJ	.	.	.	.	.	.	.	.	.
!	!	!	!LO:LB:g=original	!	!	!	!	!	!	!	!	!	!	!
=32	=32	=32	=32	=32	=32	=32	=32	=32	=32	=32	=32	=32	=32	=32
8F\	x 3	.	16g#X/LL	.	16gg#X\LL	.	.	.	.	.	.	.	2ryy	2ryy
.	.	.	16a/	.	16aa\	.	.	.	.	.	.	.	.	.
8r	.	.	16a/	.	16aa\	.	.	.	.	.	.	.	.	.
.	.	.	16a/JJ	.	16aa\JJ	.	.	.	.	.	.	.	.	.
8r	.	.	16a/LL	.	16aa\LL	.	.	.	.	.	.	.	.	.
.	.	.	16gn/	.	16ggn\	.	.	.	.	.	.	.	.	.
8C#X/	5 3	.	16f#X/	.	16ff#X\	.	.	.	.	.	.	.	.	.
.	.	.	16g/JJ	.	16gg\JJ	.	.	.	.	.	.	.	.	.
=33	=33	=33	=33	=33	=33	=33	=33	=33	=33	=33	=33	=33	=33	=33
!	!	!	!	!	!	!	!LO:N:vis=00	!	!LO:N:vis=0	!	!LO:N:vis=0	!	!	!
8D\L	x 3	.	16g/LL	.	16gg\LL	.	0r	.	1r	.	1r	.	2ryy	2ryy
.	.	.	16fn/	.	16ffn\	.	.	.	.	.	.	.	.	.
16F\L	.	.	16a/	.	16ff\	.	.	.	.	.	.	.	.	.
16D\JJ	.	.	16f/JJ	.	16dd\JJ	.	.	.	.	.	.	.	.	.
!LO:TX:a:t=P:problem:mixed beam	!	!	!	!	!	!	!	!	!	!	!	!	!	!
8G\L	.	.	8e/L	.	8cc\L	.	.	.	.	.	.	.	.	.
8GG/J	.	.	8d/J	.	8b\J	.	.	.	.	.	.	.	.	.
!	!	!	!	!	!LO:LB:g=original	!	!	!	!	!	!	!	!	!
=34	=34	=34	=34	=34	=34	=34	=34	=34	=34	=34	=34	=34	=34	=34
8C/L	.	.	8eL 8G/	.	8ccL 8e 8G/	f	.	.	.	.	.	.	2ryy	2ryy
8CC/	.	.	32e/LL	.	32g/LL	.	.	.	.	.	.	.	.	.
.	.	.	32f/	.	32a/	.	.	.	.	.	.	.	.	.
.	.	.	32e/	.	32g/	.	.	.	.	.	.	.	.	.
.	.	.	32d/JJJ	.	32f/JJJ	.	.	.	.	.	.	.	.	.
8CC/J	.	.	8c/	.	8e/	.	.	.	.	.	.	.	.	.
8r	.	.	8r	.	8r	.	.	.	.	.	.	.	.	.
!LO:LB:g=original	!	!	!	!	!	!	!	!	!	!	!	!	!	!
=35	=35	=35	=35	=35	=35	=35	=35	=35	=35	=35	=35	=35	=35	=35
8C/	.	.	16r	.	16r	.	.	.	2r	.	8.cc\	Vir-	2ryy	2ryy
!	!	!	!	!	!	!LO:DY:rj	!	!	!	!	!	!	!	!
.	.	.	16c/LL	.	16e/LL	p	.	.	.	.	.	.	.	.
8r	.	.	16e/	.	16g/	.	.	.	.	.	.	.	.	.
.	.	.	16e/JJ	.	16cc/JJ	.	.	.	.	.	16cc\	-go	.	.
8GG/	.	.	16r	.	16r	.	.	.	.	.	16cc\LL	po-	.	.
.	.	.	16B/LL	.	16d/LL	.	.	.	.	.	16b\JJ	.	.	.
8r	.	.	16d/	.	16f/	.	.	.	.	.	8dd\	-tens	.	.
.	.	.	16B/JJ	.	16d/JJ	.	.	.	.	.	.	.	.	.
=36	=36	=36	=36	=36	=36	=36	=36	=36	=36	=36	=36	=36	=36	=36
!	!	!	!	!	!	!	!	!	!LO:TX:a:t=Solo	!	!	!	!	!
8C/	.	.	16r	.	16r	.	.	.	8.c\	Vir-	8.ee\	Vir-	2ryy	2ryy
.	.	.	16e/LL	.	16g/LL	.	.	.	.	.	.	.	.	.
8r	.	.	16e/	.	16cc/	.	.	.	.	.	.	.	.	.
.	.	.	16cc/JJ	.	16ee/JJ	.	.	.	16c\	-go	16ee\	-go	.	.
8GG/	.	.	16r	.	16r	.	.	.	16c\LL	Cle-	16ee\LL	Cle-	.	.
.	.	.	16d/LL	.	16f/LL	.	.	.	16B\JJ	.	16dd\JJ	.	.	.
8r	.	.	16f/	.	16a/	.	.	.	8d\	-mens	8ff\	-mens	.	.
.	.	.	16d/JJ	.	16f/JJ	.	.	.	.	.	.	.	.	.
!	!	!	!	!	!	!	!	!	!LO:LB:g=original	!	!LO:LB:g=original	!	!	!
=37	=37	=37	=37	=37	=37	=37	=37	=37	=37	=37	=37	=37	=37	=37
!	!	!	!	!	!	!	!LO:N:vis=0	!	!	!	!	!	!	!
8C/	.	.	16r	.	16r	.	1r	.	8c\	Vir-	8ee\	Vir-	2ryy	2ryy
.	.	.	16e/LL	.	16cc\LL	.	.	.	.	.	.	.	.	.
8r	.	.	16cc/	.	16ee\	.	.	.	16e\	-go	16gg\	-go	.	.
.	.	.	16ee/JJ	.	16gg\JJ	.	.	.	16e\	fi-	16gg\	fi-	.	.
8r	.	.	8.ee\L	.	8.ccc\L	.	.	.	8.e	-de-	8.gg\L	-de-	.	.
16r	.	.	.	.	.	.	.	.	.	.	.	.	.	.
16F#X\	7 5	.	16cc\Jk	.	16ee\Jk	.	.	.	16c	.	16ee\Jk	.	.	.
=38	=38	=38	=38	=38	=38	=38	=38	=38	=38	=38	=38	=38	=38	=38
!LO:TX:a:t=P:problem:mixed beam	!	!	!	!	!	!LO:DY:t=for.	!	!	!	!	!	!	!	!
8G\L	5 3	.	8b/L	f	8dd/L	f	.	.	8B\	-lis	8dd\	-lis	2ryy	2ryy
8GG/	.	.	8b 8d 8G/	.	8gg 8b 8d/	.	.	.	8r	.	8r	.	.	.
8GG/J	.	.	8bJ 8d 8G/	.	8ggJ 8b 8d/	.	.	.	4r	.	4r	.	.	.
8r	.	.	8r	.	8r	.	.	.	.	.	.	.	.	.
!	!	!	!LO:LB:g=original	!	!	!	!	!	!	!	!	!	!	!
=39	=39	=39	=39	=39	=39	=39	=39	=39	=39	=39	=39	=39	=39	=39
!	!	!	!	!	!	!	!	!	!	!	!LO:N:vis=00	!	!	!
8C/	.	.	16r	.	16r	.	2r	.	8.c\	Vir-	0r	.	2ryy	2ryy
!	!	!	!	!LO:DY:rj:t=p	!	!LO:DY:rj	!	!	!	!	!	!	!	!
.	.	.	16c/LL	p	16e/LL	p	.	.	.	.	.	.	.	.
8r	.	.	16e/	.	16g/	.	.	.	.	.	.	.	.	.
.	.	.	16e/JJ	.	16cc/JJ	.	.	.	16c\	-go	.	.	.	.
8GG/	.	.	16r	.	16r	.	.	.	16c\LL	po-	.	.	.	.
.	.	.	16B/LL	.	16d/LL	.	.	.	16B\JJ	.	.	.	.	.
8r	.	.	16d/	.	16f/	.	.	.	8d\	-tens	.	.	.	.
.	.	.	16B/JJ	.	16d/JJ	.	.	.	.	.	.	.	.	.
=40	=40	=40	=40	=40	=40	=40	=40	=40	=40	=40	=40	=40	=40	=40
!	!	!	!	!	!	!	!LO:TX:a:rj:t=Bas	!	!LO:TX:a:t=Bas	!	!	!	!	!
8C/	.	.	16r	.	16r	.	8.c\	Vir-	8.e\	Vir-	.	.	2ryy	2ryy
.	.	.	16e/LL	.	16g/LL	.	.	.	.	.	.	.	.	.
8r	.	.	16e/	.	16cc/	.	.	.	.	.	.	.	.	.
.	.	.	16cc/JJ	.	16ee/JJ	.	16c\	-go	16e\	-go	.	.	.	.
8G\	.	.	16r	.	16r	.	16c\LL	Cle-	16e\LL	Cle-	.	.	.	.
.	.	.	16d/LL	.	16f/LL	.	16B\JJ	.	16d\JJ	.	.	.	.	.
8r	.	.	16f/	.	16a/	.	8d\	-mens	8f\	-mens	.	.	.	.
.	.	.	16d/JJ	.	16f/JJ	.	.	.	.	.	.	.	.	.
!	!	!	!	!	!LO:LB:g=original	!	!LO:LB:g=original	!	!	!	!	!	!	!
=41	=41	=41	=41	=41	=41	=41	=41	=41	=41	=41	=41	=41	=41	=41
8c\	.	.	16r	.	16r	.	8c\	vir-	8e\	Vir-	.	.	2ryy	2ryy
.	.	.	16e/LL	.	16cc\LL	.	.	.	.	.	.	.	.	.
8r	.	.	16cc/	.	16ee\	.	16e\	-go	16g\	-go	.	.	.	.
.	.	.	16ee/JJ	.	16gg\JJ	.	16e\	fi-	16g\	fi-	.	.	.	.
8r	.	.	8.ee\L	.	8.ccc\L	.	8.e\L	-de-	8.g\L	-de-	.	.	.	.
16r	.	.	.	.	.	.	.	.	.	.	.	.	.	.
16F#X\	7 5	.	16cc\Jk	.	16ee\Jk	.	16c\Jk	.	16e\Jk	.	.	.	.	.
!	!	!	!	!	!	!	!	!	!LO:LB:g=original	!	!	!	!	!
=42	=42	=42	=42	=42	=42	=42	=42	=42	=42	=42	=42	=42	=42	=42
!LO:TX:a:t=P:problem:mixed beam	!	!	!	!	!	!	!	!	!	!	!	!	!	!
8G\L	5 3	.	8b/L	f	8dd/L	f	8B\	-lis	8d\	-lis	.	.	2ryy	2ryy
8GG/	.	.	8b 8d 8G/	.	8gg 8b 8d/	.	8r	.	8r	.	.	.	.	.
8GG/J	.	.	8bJ 8d 8G/	.	8ggJ 8b 8d/	.	4r	.	4r	.	.	.	.	.
8r	.	.	8r	.	8r	.	.	.	.	.	.	.	.	.
=43	=43	=43	=43	=43	=43	=43	=43	=43	=43	=43	=43	=43	=43	=43
!	!	!	!	!	!	!LO:DY:rj	!	!	!	!	!	!	!	!
8G\L	7_ 3	p	4b\	p	4ff\	p	8G\L	O-	8B\L	O-	2ff\	O-	2ryy	2ryy
8A\	_ 3	.	.	.	.	.	8A\	.	8c\	.	.	.	.	.
8B\	_ 3	.	8r	.	8r	.	8B\	.	8d\	.	.	.	.	.
8G#X\J	_ 3	.	8b\	.	8ff\	.	8G#X\J	.	8B\J	.	.	.	.	.
=44	=44	=44	=44	=44	=44	=44	=44	=44	=44	=44	=44	=44	=44	=44
8A\L	5 3	.	4cc\	.	4ee\	.	8A\L	.	8c\L	.	4.ee\	-ra	2ryy	2ryy
!	!	!	!	!	!	!	!LO:SIC:v:s=8G#\	!	!	!	!	!	!	!
8G#X\	x 3	.	.	.	.	.	8G\	.	8B\	.	.	.	.	.
8A\	x 3	.	8r	.	8r	.	8A\	.	8c\	.	.	.	.	.
8E\J	x 6|	.	8g/	.	8cc#X\	.	8E\J	.	8G\J	.	8cc#X\	o-	.	.
!LO:LB:g=original	!	!	!	!	!	!	!	!	!	!	!	!	!	!
=45	=45	=45	=45	=45	=45	=45	=45	=45	=45	=45	=45	=45	=45	=45
8F\L	x 6	.	8a/L	.	8dd\L	.	8F\	.	8A\	.	8dd\	.	2ryy	2ryy
16E\L	x 6|	.	16g/L	.	16cc#X\L	.	16E\	-ra	16G\	-ra	16cc#X\	-ra	.	.
16F\JJ	x 6	.	16a/JJ	.	16dd\JJ	.	16F\	pro-	16A\	pro	16dd\	pro	.	.
!LO:TX:a:t=P:problem:mixed beam	!	!	!	!	!	!	!LO:TX:a:t=P:problem:mixed beam	!	!	!	!	!	!	!
8G\L	x n4	.	8e/L	.	8ccn\L	.	8G\L	-no-	8E/L	no-	8ccn\L	no-	.	.
8GG/J	x 3	.	8d/J	.	8b\J	.	8GG/J	.	8D/J	.	8b\J	.	.	.
=46	=46	=46	=46	=46	=46	=46	=46	=46	=46	=46	=46	=46	=46	=46
!	!	!	!LO:TX:a:t=P:problem:mixed beam	!	!	!	!	!	!	!	!	!	!	!
8C/	.	.	8e/L	.	16cc\LL	.	8C/	-bis	8E/	-bis	8cc\	-bis	2ryy	2ryy
.	.	.	.	.	16ccc\	.	.	.	.	.	.	.	.	.
8r	.	.	16aa\L	.	16aa\	.	8r	.	8r	.	8r	.	.	.
.	.	.	16ff#X\JJ	.	16ff#X\JJ	.	.	.	.	.	.	.	.	.
4r	.	.	16aa\LL	.	16aa\LL	.	4r	.	4r	.	4r	.	.	.
.	.	.	16gg\	.	16gg\	.	.	.	.	.	.	.	.	.
.	.	.	16ee\	.	16ee\	.	.	.	.	.	.	.	.	.
.	.	.	16cc\JJ	.	16cc\JJ	.	.	.	.	.	.	.	.	.
!	!	!	!LO:LB:g=original	!	!	!	!LO:LB:g=original	!	!	!	!	!	!	!
=47	=47	=47	=47	=47	=47	=47	=47	=47	=47	=47	=47	=47	=47	=47
!	!	!	!	!	!	!	!	!	!LO:TX:t=P:problem:t. 47-50 zapisane repetycją	!	!LO:TX:t=P:problem:t. 47-50 zapsiane repetyccją	!	!	!
8G\L	7_ 3	.	4b\	.	4ff\	.	8G\L	O-	8B\Lyy	O-	2ff\yy	O-	2ryy	2ryy
8A\	_ 3	.	.	.	.	.	8A\	.	8c\yy	.	.	.	.	.
8B\	_ 3	.	8r	.	8r	.	8B\	.	8d\yy	.	.	.	.	.
8G#X\J	_ 3	.	8b\	.	8ff\	.	8G#X\J	.	8B\Jyy	.	.	.	.	.
=48	=48	=48	=48	=48	=48	=48	=48	=48	=48	=48	=48	=48	=48	=48
8A\L	5 3	.	4cc\	.	4ee\	.	8A\L	.	8c\Lyy	.	4.ee\yy	-ra	2ryy	2ryy
!	!	!	!	!	!	!	!LO:SIC:v:s=8G#\	!	!	!	!	!	!	!
8G#X\	_ 3	.	.	.	.	.	8G\	.	8B\yy	.	.	.	.	.
8A\	_ 3	.	8r	.	8r	.	8A\	.	8c\yy	.	.	.	.	.
8E\J	x 6|	.	8g/	.	8cc#X\	.	8E\J	.	8G\Jyy	.	8cc#X\yy	o-	.	.
=49	=49	=49	=49	=49	=49	=49	=49	=49	=49	=49	=49	=49	=49	=49
8F\L	x 6	.	8a/L	.	8dd\L	.	8F\	.	8A\yy	.	8dd\yy	.	2ryy	2ryy
16E\L	x 6|	.	16g/L	.	16cc#X\L	.	16E\	-ra	16G\yy	-ra	16cc#X\yy	-ra	.	.
16F\JJ	x 6	.	16a/JJ	.	16dd\JJ	.	16F\	pro-	16A\yy	pro	16dd\yy	pro	.	.
!LO:TX:a:t=P:problem:mixed beam	!	!	!	!	!	!	!LO:TX:a:t=P:problem:mixed beam	!	!	!	!	!	!	!
8G\L	x n4	.	8e/L	.	8ccn\L	.	8G\L	-no-	8E/Lyy	no-	8ccn\Lyy	no-	.	.
8GG/J	x 3	.	8d/J	.	8b\J	.	8GG/J	.	8D/Jyy	.	8b\Jyy	.	.	.
!	!	!	!	!	!LO:LB:g=original	!	!	!	!	!	!	!	!	!
=50	=50	=50	=50	=50	=50	=50	=50	=50	=50	=50	=50	=50	=50	=50
8C/L	.	p	8eL 8G/	.	8cc\L	.	8C/	-bis	8E/yy	-bis	8cc\yy	-bis	2ryy	2ryy
8CC/	.	.	8e 8G/	.	8ccc 8ee\	.	8r	.	8ryy	.	8ryy	.	.	.
8CC/J	.	.	8eJ 8G/	.	8cccJ 8ee\	.	4r	.	4ryy	.	4ryy	.	.	.
8r	.	.	8r	.	8r	.	.	.	.	.	.	.	.	.
=51	=51	=51	=51	=51	=51	=51	=51	=51	=51	=51	=51	=51	=51	=51
!	!	!	!	!LO:DY:t=p	!	!	!LO:N:vis=00	!	!LO:TX:a:t=Solo	!	!LO:N:vis=00	!	!	!
8G\	.	.	16g/LL	p	16b/LL	p	0r	.	8.d\	Spe-	0r	.	2ryy	2ryy
.	.	.	16d/	.	16d/	.	.	.	.	.	.	.	.	.
8r	.	.	16B/	.	16d/	.	.	.	.	.	.	.	.	.
.	.	.	16d/JJ	.	16d/JJ	.	.	.	32B\LLL	-cu-	.	.	.	.
.	.	.	.	.	.	.	.	.	32d\JJJ	.	.	.	.	.
8D\	x #	.	16a/LL	.	16cc/LL	.	.	.	16d\LL	-lum	.	.	.	.
.	.	.	16d/	.	16d/	.	.	.	16c\JJ	.	.	.	.	.
8r	.	.	16c/	.	16d/	.	.	.	16A/LL	iu-	.	.	.	.
!	!	!	!	!	!	!	!	!	!LO:SIC:v:s=16F#/JJ	!	!	!	!	!
.	.	.	16d/JJ	.	16d/JJ	.	.	.	16F/JJ	.	.	.	.	.
!	!	!	!	!	!	!	!	!	!LO:LB:g=original	!	!	!	!	!
=52	=52	=52	=52	=52	=52	=52	=52	=52	=52	=52	=52	=52	=52	=52
8GG/	.	.	16g/LL	.	16b/LL	.	.	.	8.G/	-sti-	.	.	2ryy	2ryy
.	.	.	16d/	.	16d/	.	.	.	.	.	.	.	.	.
8r	.	.	16B/	.	16d/	.	.	.	.	.	.	.	.	.
.	.	.	16d/JJ	.	16d/JJ	.	.	.	32A/LLL	-ti-	.	.	.	.
.	.	.	.	.	.	.	.	.	32B/JJJ	.	.	.	.	.
!	!	!	!LO:TX:a:t=P:problem:mixed beam	!	!LO:TX:a:t=P:problem:mixed beam	!	!	!	!	!	!	!	!	!
!	!	!	!LO:SIC:v:s=16f#/LL	!	!	!	!	!	!	!	!	!	!	!
8D\	.	.	16f/LL	.	16a/LL	.	.	.	8A/	-ae	.	.	.	.
.	.	.	32ff#X\L	.	32aa\L	.	.	.	.	.	.	.	.	.
.	.	.	32ee\JJJ	.	32gg\JJJ	.	.	.	.	.	.	.	.	.
8r	.	.	32dd\LLL	.	32ff#X\LLL	.	.	.	8r	.	.	.	.	.
.	.	.	32cc\	.	32ee\	.	.	.	.	.	.	.	.	.
.	.	.	32b\	.	32dd\	.	.	.	.	.	.	.	.	.
.	.	.	32a\JJJ	.	32cc\JJJ	.	.	.	.	.	.	.	.	.
=53	=53	=53	=53	=53	=53	=53	=53	=53	=53	=53	=53	=53	=53	=53
8G\	.	.	16g/LL	.	16b/LL	.	.	.	8.d\	Se-	.	.	2ryy	2ryy
.	.	.	16d/	.	16d/	.	.	.	.	.	.	.	.	.
8r	.	.	16B/	.	16d/	.	.	.	.	.	.	.	.	.
.	.	.	16d/JJ	.	16d/JJ	.	.	.	32B\LLL	-des	.	.	.	.
.	.	.	.	.	.	.	.	.	32e\JJJ	.	.	.	.	.
8D\	.	.	16a/LL	.	16cc/LL	.	.	.	16d\LL	Sa-	.	.	.	.
.	.	.	16d/	.	16d/	.	.	.	16c\JJ	.	.	.	.	.
8r	.	.	16c/	.	16d/	.	.	.	16A/LL	-pi-	.	.	.	.
!	!	!	!	!	!	!	!	!	!LO:SIC:v:s=16F#/JJ	!	!	!	!	!
.	.	.	16d/JJ	.	16d/JJ	.	.	.	16F/JJ	.	.	.	.	.
=54	=54	=54	=54	=54	=54	=54	=54	=54	=54	=54	=54	=54	=54	=54
8GG/	.	.	16g/LL	.	16b/LL	.	.	.	8.G/	-en-	.	.	2ryy	2ryy
.	.	.	16d/	.	16d/	.	.	.	.	.	.	.	.	.
8r	.	.	16B/	.	16d/	.	.	.	.	.	.	.	.	.
.	.	.	16d/JJ	.	16d/JJ	.	.	.	32A/LLL	-ti-	.	.	.	.
.	.	.	.	.	.	.	.	.	32B/JJJ	.	.	.	.	.
!	!	!	!LO:TX:a:t=P:problem:mixed beam	!	!	!	!	!	!	!	!	!	!	!
!	!	!	!LO:SIC:v:s=16f#/LL	!	!	!	!	!	!	!	!	!	!	!
8D\	.	.	16f/LL	.	16a\LL	.	.	.	8A/	-ae	.	.	.	.
.	.	.	32ff#X\L	.	32aa\L	.	.	.	.	.	.	.	.	.
.	.	.	32ee\JJJ	.	32gg\JJJ	.	.	.	.	.	.	.	.	.
8r	.	.	32dd\LLL	.	32ff#X\LLL	.	.	.	8r	.	.	.	.	.
.	.	.	32cc\	.	32ee\	.	.	.	.	.	.	.	.	.
.	.	.	32b\	.	32dd\	.	.	.	.	.	.	.	.	.
.	.	.	32a\JJJ	.	32cc\JJJ	.	.	.	.	.	.	.	.	.
!LO:LB:g=original	!	!	!LO:LB:g=original	!	!	!	!	!	!	!	!	!	!	!
=55	=55	=55	=55	=55	=55	=55	=55	=55	=55	=55	=55	=55	=55	=55
!LO:TX:a:t=P:problem:mixed beam	!	!	!	!	!	!	!LO:N:vis=00	!	!	!	!LO:N:vis=00	!	!	!
16GG/LL	8 3	.	16B/LL	.	8b/L	.	0r	.	8G/	cau-	0r	.	2ryy	2ryy
16G\	.	.	16d/	.	.	.	.	.	.	.	.	.	.	.
16G\	.	.	16g/	.	16g/L	.	.	.	8G/	-sa	.	.	.	.
16G\JJ	.	.	16d/JJ	.	16g/JJ	.	.	.	.	.	.	.	.	.
*tremolo	*	*	*rep	*	*	*	*	*	*	*	*	*	*	*
16G\LL	.	.	16B/LL	.	8g/L	.	.	.	8G/	na-	.	.	.	.
16G\	.	.	16d/	.	.	.	.	.	.	.	.	.	.	.
16G\	.	.	16g/	.	16f#X/L	.	.	.	16F#X/	-stre	.	.	.	.
16G\JJ	.	.	16d/JJ	.	16g/JJ	.	.	.	16G/	lae-	.	.	.	.
*Xtremolo	*	*	*Xrep	*	*	*	*	*	*	*	*	*	*	*
!	!	!	!	!	!LO:LB:g=original	!	!	!	!	!	!	!	!	!
=56	=56	=56	=56	=56	=56	=56	=56	=56	=56	=56	=56	=56	=56	=56
!LO:TX:a:t=P:problem:mixed beam	!	!	!	!	!	!	!	!	!	!	!	!	!	!
16GG/LL	7| 4	.	16c/LL	.	8a/L	.	.	.	8.A\	-ti-	.	.	2ryy	2ryy
16G\	.	.	16d/	.	.	.	.	.	.	.	.	.	.	.
!	!	!	!LO:SIC:v:s=16f#/	!	!	!	!	!	!	!	!	!	!	!
16G\	.	.	16f/	.	8.a/J	.	.	.	.	.	.	.	.	.
16G\JJ	.	.	16d/JJ	.	.	.	.	.	16A\	-ti-	.	.	.	.
*tremolo	*	*	*rep	*	*	*	*	*	*	*	*	*	*	*
16G\LL	.	.	16c/LL	.	.	.	.	.	8A\	-ae	.	.	.	.
16G\	.	.	16d/	.	16dd\LL	.	.	.	.	.	.	.	.	.
!	!	!	!LO:SIC:v:s=16f#/	!	!	!	!	!	!LO:N:vis=4	!	!	!	!	!
16G\	.	.	16f/	.	16cc\	.	.	.	8r	.	.	.	.	.
16G\JJ	.	.	16d/JJ	.	16a\JJ	.	.	.	.	.	.	.	.	.
*Xtremolo	*	*	*Xrep	*	*	*	*	*	*	*	*	*	*	*
!	!	!	!	!	!	!	!	!	!LO:LB:g=original	!	!	!	!	!
=57	=57	=57	=57	=57	=57	=57	=57	=57	=57	=57	=57	=57	=57	=57
!LO:TX:a:t=P:problem:mixed beam	!	!	!	!	!	!	!	!	!	!	!	!	!	!
16GG/LL	n4 5	.	16B/LL	.	8b\L	.	.	.	8B\	vas	.	.	2ryy	2ryy
16G\	.	.	16d/	.	.	.	.	.	.	.	.	.	.	.
16G\	.	.	16fn/	.	8.b\J	.	.	.	8B\	spi-	.	.	.	.
16G\JJ	.	.	16d/JJ	.	.	.	.	.	.	.	.	.	.	.
*tremolo	*	*	*rep	*	*	*	*	*	*	*	*	*	*	*
16G\LL	.	.	16B/LL	.	.	.	.	.	8B\	-ri-	.	.	.	.
16G\	.	.	16d/	.	16b/LL	.	.	.	.	.	.	.	.	.
16G\	.	.	16f/	.	16a/	.	.	.	16A\LL	-tu-	.	.	.	.
16G\JJ	.	.	16d/JJ	.	16b/JJ	.	.	.	16B\JJ	.	.	.	.	.
*Xtremolo	*	*	*Xrep	*	*	*	*	*	*	*	*	*	*	*
=58	=58	=58	=58	=58	=58	=58	=58	=58	=58	=58	=58	=58	=58	=58
!LO:TX:a:t=P:problem:mixed beam	!	!	!	!	!	!	!	!	!	!	!	!	!	!
16GG/LL	6 4	.	16G/LL	.	16dd\LL	.	.	.	8c\	-a-	.	.	2ryy	2ryy
16G\	.	.	16c/	.	16cc\J	.	.	.	.	.	.	.	.	.
16G\	.	.	16e/	.	8.cc\J	.	.	.	8c\	-le	.	.	.	.
16G\JJ	.	.	16c/JJ	.	.	.	.	.	.	.	.	.	.	.
*tremolo	*	*	*rep	*	*	*	*	*	*	*	*	*	*	*
16G\LL	.	.	16G/LL	.	.	.	.	.	4r	.	.	.	.	.
16G\	.	.	16c/	.	16dd\LL	.	.	.	.	.	.	.	.	.
16G\	.	.	16e/	.	16ee\	.	.	.	.	.	.	.	.	.
16G\JJ	.	.	16c/JJ	.	16cc\JJ	.	.	.	.	.	.	.	.	.
*Xtremolo	*	*	*Xrep	*	*	*	*	*	*	*	*	*	*	*
=59	=59	=59	=59	=59	=59	=59	=59	=59	=59	=59	=59	=59	=59	=59
!LO:TX:a:t=P:problem:mixed beam	!	!	!	!	!	!	!	!	!	!	!LO:N:vis=00	!	!	!
16GG/LL	7| 4	.	16A/LL	.	16a\LL	.	2r	.	4c\	vas	0r	.	2ryy	2ryy
16G\	.	.	16a 16d/	.	16ff#X\	.	.	.	.	.	.	.	.	.
16G\	.	.	16a 16d/	.	16ff#\	.	.	.	.	.	.	.	.	.
16G\JJ	.	.	16aJJ 16d/	.	16ff#\JJ	.	.	.	.	.	.	.	.	.
*tremolo	*	*	*	*	*	*	*	*	*	*	*	*	*	*
16G\LL	.	.	16r	.	16r	.	.	.	16B\LL	ho-	.	.	.	.
16G\	.	.	16aLL 16d/	.	16ff#\LL	.	.	.	16A\JJ	.	.	.	.	.
16G\	.	.	16a 16d/	.	16ff#\	.	.	.	16G/LL	-no-	.	.	.	.
!	!	!	!	!	!	!	!	!	!LO:SIC:v:s=16F$/JJ	!	!	!	!	!
16G\JJ	.	.	16aJJ 16d/	.	16ff#\JJ	.	.	.	16F/JJ	.	.	.	.	.
*Xtremolo	*	*	*	*	*	*	*	*	*	*	*	*	*	*
=60	=60	=60	=60	=60	=60	=60	=60	=60	=60	=60	=60	=60	=60	=60
!LO:TX:a:t=P:problem:mixed beam	!	!	!	!	!	!	!	!	!LO:TX:a:t=Bas	!	!	!	!	!
16GG/LL	8 3	.	16r	.	16r	.	4d\	O-	16.A/	-ra-	.	.	2ryy	2ryy
16G\	.	.	16bLL 16d/	.	16gg\LL	.	.	.	.	.	.	.	.	.
.	.	.	.	.	.	.	.	.	32G/	-bi-	.	.	.	.
16G\	.	.	16b 16d/	.	16gg\	.	.	.	8G/	-le	.	.	.	.
16G\JJ	.	.	16bJJ 16d/	.	16gg\JJ	.	.	.	.	.	.	.	.	.
*tremolo	*	*	*	*	*	*	*	*	*	*	*	*	*	*
16G\LL	.	.	16r	.	16r	.	16c\LL	-ra	4r	.	.	.	.	.
16G\	.	.	16dd\LL	.	16bb\LL	.	16B\JJ	.	.	.	.	.	.	.
16G\	.	.	16cc\	.	16aa\	.	16A\LL	pro	.	.	.	.	.	.
16G\JJ	.	.	16b\JJ	.	16gg\JJ	.	16G\JJ	.	.	.	.	.	.	.
*Xtremolo	*	*	*	*	*	*	*	*	*	*	*	*	*	*
=61	=61	=61	=61	=61	=61	=61	=61	=61	=61	=61	=61	=61	=61	=61
!LO:TX:a:t=P:problem:mixed beam	!	!	!	!	!	!	!LO:SIC:v:s=8F#\	!	!	!	!	!	!	!
16GG/LL	7| 4	.	16r	.	16r	.	8F\	no-	16c\	vas	.	.	2ryy	2ryy
16G\	.	.	16aLL 16d/	.	16ff#X\LL	.	.	.	16c\	in-	.	.	.	.
!	!	!	!	!	!	!	!LO:SIC:v:s=8F#\	!	!	!	!	!	!	!
16G\	.	.	16a 16d/	.	16ff#\	.	8F\	-bis	16c\	si-	.	.	.	.
16G\JJ	.	.	16aJJ 16d/	.	16ff#\JJ	.	.	.	16c\	-gne	.	.	.	.
*tremolo	*	*	*	*	*	*	*	*	*	*	*	*	*	*
16G\LL	.	.	16r	.	16r	.	4r	.	16B/LL	de	.	.	.	.
16G\	.	.	16aLL 16d/	.	16ff#\LL	.	.	.	16A/JJ	.	.	.	.	.
16G\	.	.	16a 16d/	.	16ff#\	.	.	.	16G/	vo-	.	.	.	.
!	!	!	!	!	!	!	!	!	!LO:SIC:v:s=16F#/	!	!	!	!	!
16G\JJ	.	.	16aJJ 16d/	.	16ff#\JJ	.	.	.	16F/	-ti-	.	.	.	.
*Xtremolo	*	*	*	*	*	*	*	*	*	*	*	*	*	*
!	!	!	!	!	!	!	!LO:LB:g=original	!	!LO:LB:g=original	!	!	!	!	!
=62	=62	=62	=62	=62	=62	=62	=62	=62	=62	=62	=62	=62	=62	=62
!LO:TX:a:t=P:problem:mixed beam	!	!	!	!	!	!	!	!	!	!	!	!	!	!
16GG/LL	8 3	.	16r	.	16r	.	4d\	O-	16.A/LL	-o-	.	.	2ryy	2ryy
16G\	.	.	16bLL 16d/	.	16gg\LL	.	.	.	.	.	.	.	.	.
.	.	.	.	.	.	.	.	.	32G/JJk	.	.	.	.	.
16G\	.	.	16b 16d/	.	16gg\	.	.	.	8G/	-nis	.	.	.	.
16G\JJ	.	.	16bJJ 16d/	.	16gg\JJ	.	.	.	.	.	.	.	.	.
*tremolo	*	*	*	*	*	*	*	*	*	*	*	*	*	*
16G\LL	.	.	16r	.	16r	.	16c\LL	-ra	4r	.	.	.	.	.
16G\	.	.	16dd\LL	.	16bb\LL	.	16B\JJ	.	.	.	.	.	.	.
16G\	.	.	16cc\	.	16aa\	.	16A\LL	pro	.	.	.	.	.	.
16G\JJ	.	.	16b\JJ	.	16gg\JJ	.	16G\JJ	.	.	.	.	.	.	.
*Xtremolo	*	*	*	*	*	*	*	*	*	*	*	*	*	*
!	!	!	!LO:LB:g=original	!	!LO:LB:g=original	!	!	!	!	!	!	!	!	!
=63	=63	=63	=63	=63	=63	=63	=63	=63	=63	=63	=63	=63	=63	=63
!LO:TX:a:t=P:problem:mixed beam	!	!	!	!	!	!	!LO:SIC:v:s=8F#\	!	!	!	!LO:N:vis=0	!	!	!
16GG/LL	7| 4	.	16r	.	16r	.	8F\	no-	8c\	O-	1r	.	2ryy	2ryy
16G\	.	.	16aLL 16d/	.	16ff#X\LL	.	.	.	.	.	.	.	.	.
!	!	!	!	!	!	!	!LO:SIC:v:s=8F#\	!	!	!	!	!	!	!
16G\	.	.	16a 16d/	.	16ff#\	.	8F\	-bis	8c\	-ra	.	.	.	.
16G\JJ	.	.	16aJJ 16d/	.	16ff#\JJ	.	.	.	.	.	.	.	.	.
*tremolo	*	*	*	*	*	*	*	*	*	*	*	*	*	*
!	!	!	!	!	!	!	!LO:SIC:v:s=8F#\	!	!	!	!	!	!	!
16G\LL	.	.	16r	.	16r	.	8F\	o-	8c\	O-	.	.	.	.
16G\	.	.	16aLL 16d/	.	16ff#\LL	.	.	.	.	.	.	.	.	.
16G\	.	.	16a 16d/	.	16ff#\	.	16d\	-ra	16B\	-ra	.	.	.	.
16G\JJ	.	.	16aJJ 16d/	.	16ff#\JJ	.	16c\	pro	16A\	pro	.	.	.	.
*Xtremolo	*	*	*	*	*	*	*	*	*	*	*	*	*	*
!LO:LB:g=original	!	!	!	!	!	!	!	!	!	!	!	!	!	!
=64	=64	=64	=64	=64	=64	=64	=64	=64	=64	=64	=64	=64	=64	=64
!LO:TX:a:t=P:problem:mixed beam	!	!	!	!	!	!	!	!	!	!	!	!	!	!
8G\L	8 3	.	8bL 8d 8G/	.	8ggL 8b 8d/	.	8B\	no-	16A/LL	no-	.	.	2ryy	2ryy
.	.	.	.	.	.	.	.	.	16G/JJ	.	.	.	.	.
8GG/	.	.	32g/LL	.	32g/LL	.	8G\	-bis	8G/	-bis	.	.	.	.
.	.	.	32f#X/	.	32f#X/	.	.	.	.	.	.	.	.	.
.	.	.	32g/	.	32g/	.	.	.	.	.	.	.	.	.
.	.	.	32f#/JJJ	.	32f#/JJJ	.	.	.	.	.	.	.	.	.
8GG/J	.	.	8g/	.	8g/	.	4r	.	4r	.	.	.	.	.
8r	.	.	8r	.	8r	.	.	.	.	.	.	.	.	.
!	!	!	!	!	!	!	!	!	!	!	!LO:LB:g=original	!	!	!
=65	=65	=65	=65	=65	=65	=65	=65	=65	=65	=65	=65	=65	=65	=65
16C'\LL	.	.	16c/LL	.	16c/LL	.	16C/LL	Vir-	8c\	Vir-	8ee\	Vir-	2ryy	2ryy
16D'\	.	.	16d/	.	16d/	.	16D/JJ	.	.	.	.	.	.	.
16E'\	.	.	16e/	.	16e/	.	16E\LL	-go	8c\	-go	8ee\	-go	.	.
16F'\JJ	.	.	16f/JJ	.	16f/JJ	.	16F\JJ	.	.	.	.	.	.	.
16G'\LL	.	.	16g/LL	.	16g/LL	.	16G\LL	pru-	8c\	pru-	8ee\	pru-	.	.
16A'\	.	.	16a/	.	16a/	.	16A\JJ	.	.	.	.	.	.	.
16B'\	.	.	16b/	.	16b/	.	16B\LL	-den-	8c\	-den-	8ee\	-den-	.	.
16c'\JJ	.	.	16cc/JJ	.	16cc/JJ	.	16c\JJ	.	.	.	.	.	.	.
=66	=66	=66	=66	=66	=66	=66	=66	=66	=66	=66	=66	=66	=66	=66
16.d\LL	.	.	8bL 8d/	.	16.dd\LL	.	16.d\	-tiſ-	16.B\	-tiſ-	16.ff\	-tiſ-	2ryy	2ryy
!	!	!	!	!	!	!	!	!	!	!	!LO:N:vis=16	!	!	!
32B\JJk	.	.	.	.	32ee\JK	.	32d\	-si-	32B\	-si-	32ff\	-si-	.	.
8G\L	.	.	8bJ 8d/	.	8ff\J	.	8d\	-ma	8B\	-ma	8ff\	-ma	.	.
8G\J	.	.	4r	.	32ff\LLL	.	4r	.	4r	.	4r	.	.	.
.	.	.	.	.	32gg\	.	.	.	.	.	.	.	.	.
.	.	.	.	.	32aa\	.	.	.	.	.	.	.	.	.
.	.	.	.	.	32gg\JJJ	.	.	.	.	.	.	.	.	.
8r	.	.	.	.	32ff\LLL	.	.	.	.	.	.	.	.	.
.	.	.	.	.	32ee\	.	.	.	.	.	.	.	.	.
.	.	.	.	.	32dd\	.	.	.	.	.	.	.	.	.
.	.	.	.	.	32cc\JJJ	.	.	.	.	.	.	.	.	.
!	!	!	!	!	!	!	!LO:LB:g=original	!	!LO:PB:g=original	!	!	!	!	!
=67	=67	=67	=67	=67	=67	=67	=67	=67	=67	=67	=67	=67	=67	=67
16GG/LL	.	.	16G/LL	.	16b/LL	.	16GG/LL	Vir-	8B\	Vir-	8dd\	vir-	2ryy	2ryy
16AA/	.	.	16g/	.	16g/	.	16AA/JJ	.	.	.	.	.	.	.
16BB/	.	.	16f#X/	.	16f#X/	.	16BB/LL	-go	8B\	-go	8dd\	-go	.	.
16C/JJ	.	.	16g/JJ	.	16g/JJ	.	16C/JJ	.	.	.	.	.	.	.
16D\LL	.	.	16a/LL	.	16a/LL	.	16D\LL	ve-	8B\	ve-	8dd\	ve-	.	.
16E\	.	.	16g/	.	16g/	.	16E\JJ	.	.	.	.	.	.	.
16F\	.	.	16a/	.	16a/	.	16F\LL	-ne-	8B\	-ne-	8dd\	-ne-	.	.
16G\JJ	.	.	16b/JJ	.	16b/JJ	.	16G\JJ	.	.	.	.	.	.	.
=68	=68	=68	=68	=68	=68	=68	=68	=68	=68	=68	=68	=68	=68	=68
!LO:TX:a:t=P:problem:mixed beam	!	!	!	!	!	!	!	!	!	!	!	!	!	!
8c\L	.	.	8ccL 8e/	.	16.cc\LL	.	8c\	-ran-	8c\	-ran-	8ee\	-ran-	2ryy	2ryy
.	.	.	.	.	32dd\JK	.	.	.	.	.	.	.	.	.
8C/	.	.	8ccJ 8e/	.	8ee\J	.	8C/	-da	8c\	-da	8ee\	-da	.	.
8C/J	.	.	16dd\LL	.	16ff\LL	.	4r	.	4r	.	4r	.	.	.
.	.	.	16ee\	.	16gg\	.	.	.	.	.	.	.	.	.
8r	.	.	16ff\	.	16aa\	.	.	.	.	.	.	.	.	.
.	.	.	16dd\JJ	.	16bb\JJ	.	.	.	.	.	.	.	.	.
!	!	!	!	!	!LO:LB:g=original	!	!	!	!	!	!	!	!	!
=69	=69	=69	=69	=69	=69	=69	=69	=69	=69	=69	=69	=69	=69	=69
8.c\L	.	.	8.ee\L	.	8.ccc\L	.	8.c\	Vir-	8.c\	Vir-	8.cc\	Vir-	2ryy	2ryy
16c\Jk	.	.	16cc\Jk	.	16cc\Jk	.	16c\	-go	16c\	-go	16cc\	-go	.	.
16A\LL	.	.	16a\LL	.	16a\LL	.	16A\LL	prae-	16A\LL	prae-	16a\LL	prae-	.	.
16B\	.	.	16b\	.	16b\	.	16B\	.	16B\	.	16b\JJ	.	.	.
16c\	.	.	16cc\	.	16cc\	.	16c\	-di-	16c\	-di-	16cc\LL	-di-	.	.
16d\JJ	.	.	16dd\JJ	.	16dd\JJ	.	16d\JJ	.	16d\JJ	.	16dd\JJ	.	.	.
=70	=70	=70	=70	=70	=70	=70	=70	=70	=70	=70	=70	=70	=70	=70
!LO:TX:a:t=P:problem:mixed beam	!	!	!	!	!	!	!	!	!	!	!	!	!	!
8G\L	.	.	8g/L	.	8g/L	.	8G\	-can-	8G/	-can-	8g\	-can-	2ryy	2ryy
8GG/	.	.	32g/LL	.	32g/LL	.	8G\	-da	8G/	-da	8g\	-da	.	.
.	.	.	32f#X/	.	32f#X/	.	.	.	.	.	.	.	.	.
.	.	.	32g/	.	32g/	.	.	.	.	.	.	.	.	.
.	.	.	32f#/JJJ	.	32f#/JJJ	.	.	.	.	.	.	.	.	.
8GG/J	.	.	8g/	.	8g/	.	4r	.	4r	.	4r	.	.	.
8r	.	.	8r	.	8r	.	.	.	.	.	.	.	.	.
!	!	!	!LO:LB:g=original	!	!	!	!	!	!	!	!LO:LB:g=original	!	!	!
=71	=71	=71	=71	=71	=71	=71	=71	=71	=71	=71	=71	=71	=71	=71
8G\L	7 3	.	4b\	p	4ff\	p	8G\L	O-	8B\L	O-	2ff\	O-	2ryy	2ryy
8A\	_ 3	.	.	.	.	.	8A\	.	8c\	.	.	.	.	.
8B\	_ 3	.	8r	.	8r	.	8B\	.	8d\	.	.	.	.	.
8G#X\J	_ 3	.	8b\	.	8ff\	.	8G#X\J	.	8B\J	.	.	.	.	.
!LO:LB:g=original	!	!	!	!	!	!	!	!	!	!	!	!	!	!
=72	=72	=72	=72	=72	=72	=72	=72	=72	=72	=72	=72	=72	=72	=72
8A\L	5 3	.	4cc\	.	4ee\	.	8A\L	.	8c\L	.	4.ee\	-ra	2ryy	2ryy
!	!	!	!	!	!	!	!LO:SIC:v:s=8G#\	!	!	!	!	!	!	!
8G#X\	_ 3	.	.	.	.	.	8G\	.	8B\	.	.	.	.	.
8A\	_ 3	.	8r	.	8r	.	8A\	.	8c\	.	.	.	.	.
8E\J	x 6|	.	8g/	.	8cc#X\	.	8E\J	.	8G\J	.	8cc#X\	o-	.	.
!	!	!	!	!	!	!	!LO:LB:g=original	!	!LO:LB:g=original	!	!	!	!	!
=73	=73	=73	=73	=73	=73	=73	=73	=73	=73	=73	=73	=73	=73	=73
8F\L	x 6	.	8a/L	.	8dd\L	.	8F\	.	8A/	.	8dd\	.	2ryy	2ryy
16E\L	x 6|	.	16g/L	.	16cc#X\L	.	16E\	-ra	16G/	-ra	16cc#X\	-ra	.	.
16F\JJ	x 6	.	16a/JJ	.	16dd\JJ	.	16F\	pro-	16A/	pro	16dd\	pro	.	.
!LO:TX:a:t=P:problem:mixed beam	!	!	!	!	!	!	!LO:TX:a:t=P:problem:mixed beam	!	!	!	!	!	!	!
8G\L	x n4	.	8e/L	.	8ccn\L	.	8G\L	-no-	8E/L	no-	8ccn\L	no-	.	.
8GG/J	x 3	.	8d/J	.	8b\J	.	8GG/J	.	8D/J	.	8b\J	.	.	.
=74	=74	=74	=74	=74	=74	=74	=74	=74	=74	=74	=74	=74	=74	=74
!	!	!	!LO:TX:a:t=P:problem:mixed beam	!	!	!	!	!	!	!	!	!	!	!
8C/	.	.	8e/L	.	16cc\LL	.	8C/	-bis	8E/	-bis	8cc\	-bis	2ryy	2ryy
.	.	.	.	.	16ccc\	.	.	.	.	.	.	.	.	.
8r	.	.	16aa\L	.	16aa\	.	8r	.	8r	.	8r	.	.	.
.	.	.	16ff#X\JJ	.	16ff#X\JJ	.	.	.	.	.	.	.	.	.
4r	.	.	16aa\LL	.	16aa\LL	.	4r	.	4r	.	4r	.	.	.
.	.	.	16gg\	.	16gg\	.	.	.	.	.	.	.	.	.
.	.	.	16ee\	.	16ee\	.	.	.	.	.	.	.	.	.
.	.	.	16cc\JJ	.	16cc\JJ	.	.	.	.	.	.	.	.	.
=75	=75	=75	=75	=75	=75	=75	=75	=75	=75	=75	=75	=75	=75	=75
!	!	!	!	!	!	!	!	!	!LO:TX:t=P:problem:t. 75-78 zapisane repetycją	!	!	!	!	!
8G\L	7 3	.	4b\	.	4ff\	.	8G\L	O-	8B\Lyy	O-	2ff\	O-	2ryy	2ryy
8A\	_ 3	.	.	.	.	.	8A\	.	8c\yy	.	.	.	.	.
8B\	_ 3	.	8r	.	8r	.	8B\	.	8d\yy	.	.	.	.	.
8G#X\J	_ 3	.	8b\	.	8ff\	.	8G#X\J	.	8B\Jyy	.	.	.	.	.
=76	=76	=76	=76	=76	=76	=76	=76	=76	=76	=76	=76	=76	=76	=76
!	!	!	!	!	!LO:N:vis=8	!	!	!	!	!	!	!	!	!
8A\L	5 3	.	4cc\	.	4ee\	.	8A\L	.	8c\Lyy	.	4.ee\	-ra	2ryy	2ryy
!	!	!	!	!	!	!	!LO:SIC:v:s=8G#\	!	!	!	!	!	!	!
8G#X\	_ 3	.	.	.	.	.	8G\	.	8B\yy	.	.	.	.	.
8A\	_ 3	.	8r	.	8r	.	8A\	.	8c\yy	.	.	.	.	.
!	!	!	!	!	!LO:N:vis=4	!	!	!	!	!	!	!	!	!
8E\J	x 6|	.	8g/	.	8cc#X\	.	8E\J	.	8G\Jyy	.	8cc#X\	o-	.	.
!	!	!	!	!	!LO:LB:g=original	!	!	!	!	!	!	!	!	!
=77	=77	=77	=77	=77	=77	=77	=77	=77	=77	=77	=77	=77	=77	=77
8F\L	x 6	.	8a/L	.	8dd\L	.	8F\	.	8A/yy	.	8dd\	.	2ryy	2ryy
16E\L	x 6|	.	16g/L	.	16cc#X\L	.	16E\	-ra	16G/yy	-ra	16cc#X\	-ra	.	.
16F\JJ	x 6	.	16a/JJ	.	16dd\JJ	.	16F\	pro-	16A/yy	pro	16dd\	pro	.	.
!LO:TX:a:t=P:problem:mixed beam	!	!	!	!	!	!	!LO:TX:a:t=P:problem:mixed beam	!	!	!	!	!	!	!
8G\L	x n4	.	8e/L	.	8ccn\L	.	8G\L	-no-	8E/Lyy	no-	8ccn\L	no-	.	.
8GG/J	x 3	.	8d/J	.	8b\J	.	8GG/J	.	8D/Jyy	.	8b\J	.	.	.
=78	=78	=78	=78	=78	=78	=78	=78	=78	=78	=78	=78	=78	=78	=78
8C/	.	.	16e/LL	.	8cc\	.	8C/	-bis	8E/yy	-bis	8cc\	-bis	2ryy	2ryy
.	.	.	16g/	.	.	.	.	.	.	.	.	.	.	.
8r	.	.	16e/	.	8r	.	8r	.	8ryy	.	8r	.	.	.
.	.	.	16g/JJ	.	.	.	.	.	.	.	.	.	.	.
8G\	.	.	16f/LL	.	16gg\LL	.	4r	.	4ryy	.	4r	.	.	.
.	.	.	16g/	.	16bb\	.	.	.	.	.	.	.	.	.
8r	.	.	16f/	.	16ddd\	.	.	.	.	.	.	.	.	.
.	.	.	16g/JJ	.	16bb\JJ	.	.	.	.	.	.	.	.	.
=79	=79	=79	=79	=79	=79	=79	=79	=79	=79	=79	=79	=79	=79	=79
!	!	!	!	!	!	!	!LO:N:vis=0	!	!LO:N:vis=0	!	!	!	!	!
8c\	.	.	16e/LL	.	8ccc\	.	1r	.	1r	.	2ryy	.	2ryy	2ryy
.	.	.	16g/	.	.	.	.	.	.	.	.	.	.	.
8r	.	.	16e/	.	8r	.	.	.	.	.	.	.	.	.
.	.	.	16g/JJ	.	.	.	.	.	.	.	.	.	.	.
8G\	.	.	16f/LL	.	16g/LL	.	.	.	.	.	.	.	.	.
.	.	.	16g/	.	16b/	.	.	.	.	.	.	.	.	.
8r	.	.	16f/	.	16dd/	.	.	.	.	.	.	.	.	.
.	.	.	16g/JJ	.	16b/JJ	.	.	.	.	.	.	.	.	.
=80	=80	=80	=80	=80	=80	=80	=80	=80	=80	=80	=80	=80	=80	=80
8C/L	.	.	8eL 8G/	.	8ccL 8e/	.	.	.	.	.	2ryy	.	2ryy	2ryy
!	!	!	!LO:N:vis=8.	!	!	!	!	!	!	!	!	!	!	!
16.GG/L	.	.	16.g/L	.	16.g/L	.	.	.	.	.	.	.	.	.
!	!	!	!LO:N:vis=16	!	!	!	!	!	!	!	!	!	!	!
32EE/JJk	.	.	32e/JJk	.	32e/JJk	.	.	.	.	.	.	.	.	.
8CC/	.	.	8c/	.	8c/	.	.	.	.	.	.	.	.	.
8r	.	.	8r	.	8r	.	.	.	.	.	.	.	.	.
!	!	!	!	!	!	!	!	!	!	!	!LO:TX:a:t=Rosa\nTacet	!	!	!
==	==	==	==	==	==	==	==	==	==	==	==	==	==	==
*-	*-	*-	*-	*-	*-	*-	*-	*-	*-	*-	*-	*-	*-	*-
!!!system-decoration: [(g1)][(g2)][(g3)]g4
!!!RDF**dynam: p = "p.", fontstyle="bold-italic"
!!!RDF**dynam: f = "f.", fontstyle="bold-italic"
!!!ENC: Katarzyna Serwa
!!!END: 2021-11-28
!!!ENC: Berenika Jozajtis
!!!END: 2021-11-20
